svg/fluentui-system-icons/ic_fluent_wifi_lock_20_regular.svg

<svg width="20" height="20" viewBox="0 0 20 20" fill="none" xmlns="http://www.w3.org/2000/svg">
<path d="M16.8311 7.38355C17.2405 7.79294 17.6273 8.26104 17.9641 8.74899C18.1209 8.97626 18.0639 9.28765 17.8366 9.4445C17.6093 9.60136 17.2979 9.54428 17.1411 9.31701C16.8379 8.87776 16.4896 8.45628 16.124 8.09066C12.7609 4.72759 7.30829 4.72759 3.94522 8.09066C3.59698 8.4389 3.25239 8.86025 2.93821 9.31314C2.78081 9.54003 2.46928 9.59636 2.24239 9.43896C2.0155 9.28155 1.95917 8.97002 2.11657 8.74313C2.46303 8.24371 2.84495 7.77671 3.23812 7.38355C6.9917 3.62996 13.0775 3.62996 16.8311 7.38355ZM14.5954 9.35699C15.0677 9.82932 15.4772 10.403 15.7892 11.013C15.9149 11.2589 15.8176 11.5601 15.5717 11.6859C15.3259 11.8116 15.0246 11.7143 14.8989 11.4684C14.6331 10.9488 14.2845 10.4603 13.8883 10.0641C12.22 8.39585 9.73934 8.03522 7.71983 8.98221C7.47084 8.70848 7.17192 8.48099 6.83745 8.31413C9.30037 6.90699 12.493 7.25461 14.5954 9.35699ZM8.5 11.0633C8.90946 11.1686 9.26817 11.4004 9.53206 11.7146C10.4659 11.5585 11.4588 11.8407 12.1793 12.5613C12.4433 12.8252 12.6655 13.157 12.8199 13.5092C12.9307 13.7621 13.2256 13.8773 13.4785 13.7665C13.7314 13.6557 13.8466 13.3608 13.7358 13.1079C13.5326 12.6442 13.2407 12.2084 12.8864 11.8541C11.7005 10.6683 9.95991 10.3753 8.4999 10.9752L8.5 11.0002V11.0633ZM10 13.4072V16.0026C10.3467 16.0142 10.6971 15.8877 10.9618 15.623C11.4688 15.116 11.4688 14.2938 10.9618 13.7868C10.6971 13.5221 10.3467 13.3956 10 13.4072ZM3.5 11.0002V12.0002H3C2.44772 12.0002 2 12.448 2 13.0002V17.0002C2 17.5525 2.44771 18.0002 3 18.0002H8C8.55228 18.0002 9 17.5525 9 17.0002V13.0002C9 12.448 8.55228 12.0002 8 12.0002H7.5V11.0002C7.5 9.89567 6.60457 9.00024 5.5 9.00024C4.39543 9.00024 3.5 9.89567 3.5 11.0002ZM4.5 12.0002V11.0002C4.5 10.448 4.94772 10.0002 5.5 10.0002C6.05228 10.0002 6.5 10.448 6.5 11.0002V12.0002H4.5ZM5.5 14.2502C5.91421 14.2502 6.25 14.586 6.25 15.0002C6.25 15.4145 5.91421 15.7502 5.5 15.7502C5.08579 15.7502 4.75 15.4145 4.75 15.0002C4.75 14.586 5.08579 14.2502 5.5 14.2502Z" fill="#212121"/>
</svg>

<svg xmlns="http://www.w3.org/2000/svg" width="20" height="20"><path d="M16.831 7.384c.41.409.796.877 1.133 1.365a.5.5 0 0 1-.823.568A8.612 8.612 0 0 0 3.945 8.091c-.348.348-.693.77-1.007 1.222a.5.5 0 1 1-.821-.57 10 10 0 0 1 1.121-1.36 9.612 9.612 0 0 1 13.593 0Zm-2.236 1.973a6.637 6.637 0 0 1 1.194 1.656.5.5 0 0 1-.89.455 5.64 5.64 0 0 0-1.01-1.404 5.452 5.452 0 0 0-6.17-1.082 3.01 3.01 0 0 0-.882-.668 6.453 6.453 0 0 1 7.758 1.043ZM8.5 11.063a2 2 0 0 1 1.032.652 3.029 3.029 0 0 1 3.288 1.794.5.5 0 0 0 .916-.401 4.135 4.135 0 0 0-.85-1.254 4.034 4.034 0 0 0-4.386-.879v.088Zm1.5 2.344v2.596a1.298 1.298 0 1 0 0-2.595ZM3.5 11v1H3a1 1 0 0 0-1 1v4a1 1 0 0 0 1 1h5a1 1 0 0 0 1-1v-4a1 1 0 0 0-1-1h-.5v-1a2 2 0 0 0-4 0Zm1 1v-1a1 1 0 0 1 2 0v1h-2Zm1 2.25a.75.75 0 1 1 0 1.5.75.75 0 0 1 0-1.5Z"/></svg>
